src/img/projects/jekyll.svg

<?xml version="1.0" encoding="UTF-8"?>
<svg width="90px" height="90px" viewBox="0 0 90 90" version="1.1" xmlns="http://www.w3.org/2000/svg" xmlns:xlink="http://www.w3.org/1999/xlink">
    <!-- Generator: Sketch 41.2 (35397) - http://www.bohemiancoding.com/sketch -->
    <title>community/card/logo/jekyll</title>
    <desc>Created with Sketch.</desc>
    <defs></defs>
    <g id="Symbols" stroke="none" stroke-width="1" fill="none" fill-rule="evenodd">
        <g id="community/card/logo/jekyll" fill="#FFFFFF">
            <path d="M51.5780516,40.8186578 C46.5783469,54.5665272 40.293711,71.9513394 40.293711,71.9513394 C39.0999978,75.0610685 35.6116653,76.6144097 32.502298,75.4208354 C29.392247,74.2269987 27.8399845,70.7387486 29.0336958,67.6290245 C29.0336958,67.6290245 34.6203724,53.5710638 39.686531,40.7428289 C41.1915442,39.7892872 43.0748655,38.9216095 45.639312,38.9216095 C47.8718171,38.9216095 50.502322,40.2277913 51.5780516,40.8186578 Z M27.2119108,67.4598818 C25.7212751,71.3431205 27.6596483,75.6990402 31.5432953,77.1898326 C35.4260886,78.6802973 39.782111,76.740577 41.2727491,72.8573319 C41.2727491,72.8573319 59.1865949,25.6957766 59.7440455,24.6070195 C61.1624208,23.818742 62.0515425,23.4235769 62.3479164,22.7320378 C63.1859106,20.6579294 60.3945894,17.5981583 55.0828484,15.4520756 C49.7711073,13.3059929 45.0507605,12.9128158 44.8618585,15.4520755 C44.7171477,17.3973077 45.4546062,17.7924729 45.7898069,19.2068076 C45.9518681,19.417686 27.2119108,67.4598818 27.2119108,67.4598818 Z M53.1670515,20.0738614 C56.2383537,21.314748 58.9954646,21.659024 59.3252311,20.8428234 C59.6549976,20.0266227 57.4325437,18.359024 54.3612415,17.1181374 C51.2899393,15.8772507 48.5328284,15.5329747 48.203062,16.3491754 C47.8732955,17.165376 50.0957493,18.8329747 53.1670515,20.0738614 Z M38.7896012,58.9104152 C39.7511079,58.9104152 40.530563,58.1297868 40.530563,57.1668329 C40.530563,56.203879 39.7511079,55.4232505 38.7896012,55.4232505 C37.8280946,55.4232505 37.0486395,56.203879 37.0486395,57.1668329 C37.0486395,58.1297868 37.8280946,58.9104152 38.7896012,58.9104152 Z M35.1572896,69.4194554 C36.2485081,69.4194554 37.1331155,68.534848 37.1331155,67.4436295 C37.1331155,66.352411 36.2485081,65.4678036 35.1572896,65.4678036 C34.066071,65.4678036 33.1814636,66.352411 33.1814636,67.4436295 C33.1814636,68.534848 34.066071,69.4194554 35.1572896,69.4194554 Z M43.6269669,52.7645918 C44.1998566,52.7645918 44.6642755,52.3001729 44.6642755,51.7272832 C44.6642755,51.1543934 44.1998566,50.6899746 43.6269669,50.6899746 C43.0540772,50.6899746 42.5896583,51.1543934 42.5896583,51.7272832 C42.5896583,52.3001729 43.0540772,52.7645918 43.6269669,52.7645918 Z M35.3778937,60.3715216 C35.868942,60.3715216 36.2670153,59.9734483 36.2670153,59.4823999 C36.2670153,58.9913516 35.868942,58.5932783 35.3778937,58.5932783 C34.8868453,58.5932783 34.488772,58.9913516 34.488772,59.4823999 C34.488772,59.9734483 34.8868453,60.3715216 35.3778937,60.3715216 Z" id="community/icon-jekyll"></path>
        </g>
    </g>
</svg>

<svg width="90" height="90" viewBox="0 0 90 90" xmlns="http://www.w3.org/2000/svg"><title>community/card/logo/jekyll</title><path d="M51.578 40.819c-5 13.748-11.284 31.132-11.284 31.132a6.03 6.03 0 1 1-11.26-4.322s5.586-14.058 10.653-26.886c1.505-.954 3.388-1.821 5.952-1.821 2.233 0 4.863 1.306 5.94 1.897zm-24.366 26.64a7.53 7.53 0 1 0 14.06 5.398s17.915-47.161 18.472-48.25c1.418-.788 2.308-1.183 2.604-1.875.838-2.074-1.953-5.134-7.265-7.28-5.312-2.146-10.032-2.54-10.221 0-.145 1.945.593 2.34.928 3.755.162.21-18.578 48.253-18.578 48.253zm25.955-47.385c3.071 1.24 5.828 1.585 6.158.769.33-.816-1.892-2.484-4.964-3.725-3.071-1.24-5.828-1.585-6.158-.769-.33.816 1.893 2.484 4.964 3.725zM38.79 58.91c.961 0 1.74-.78 1.74-1.743 0-.963-.779-1.744-1.74-1.744-.962 0-1.741.78-1.741 1.744 0 .963.78 1.743 1.74 1.743zm-3.633 10.51a1.976 1.976 0 1 0 0-3.952 1.976 1.976 0 0 0 0 3.951zm8.47-16.655a1.037 1.037 0 1 0 0-2.075 1.037 1.037 0 0 0 0 2.075zm-8.25 7.607a.89.89 0 1 0 0-1.779.89.89 0 0 0 0 1.779z" fill="#FFF" fill-rule="evenodd"/></svg>
